X:1
T:Title
%%score ( 1 2 3 ) { ( 4 6 ) | 5 }
L:1/8
Q:1/4=110
M:4/4
K:A
V:1 treble nm="Grand Piano, Soprano"
V:2 treble 
V:3 treble 
V:4 bass nm="Choir Pad, Chilton Foliat, George Martin"
V:6 bass 
V:5 bass 
V:1
 E2 A2 E2 C2- | CD E2 E2 [EF]2 | [EG]2 [EA]6 | [EB]2 [Ec]2 [EB]2 [EG]2 | z2 .G4 z2 | [^DF]2 E6 | %6
w: By~George~Clement~Martin,~1897 * * *||||||
 [B,E]2 [A,A]2 [B,E]2 C2 | [A,D]2 [B,E]2 [EG]2 [EA]2 | [EB]2 [Ec]6 | [CA]2 [DB]2 [=Gc]2 [Fd]2 | %10
w: ||||
 [DA]2 [Ec]2- [Ec][Ad] [Ac]2 | [GB]2 A6- | A2 z2 z4 |] %13
w: |||
V:2
 x8 | x8 | x8 | x8 | E2 E2 z A [^DG]2 | x8 | x8 | x8 | x8 | x8 | x8 | x8 | x8 |] %13
V:3
 x8 | x8 | x8 | x8 | z4 E2 z2 | x8 | x8 | x8 | x8 | x8 | x8 | x8 | x8 |] %13
V:4
 E,2 A,2 E,2 C,2- | C,D, E,2 G,2 A,2 | D2 C6 | G,2 A,2 B,2 B,2 | z4 C2 z2 | A,2 G,6 | %6
 G,2 E,2 E,2 E,2 | F,2 G,2 B,2 A,2 | G,2 A,6 | A,2 A,2 A,2 A,2 | A,2 A,2- A,[K:treble]F E2 | %11
 D2 C6- | C2 z2 z4 |] %13
V:5
 z8 | z4 D,2 C,2 | B,,2 A,,6 | E,2 z2 G,2 E,2 | C,2 .B,,4 B,,2 | B,,2 E,6 | D,2 C,2 G,,2 A,,2 | %7
 z2 E,2 D,2 C,2 | E,2 z2 z4 | =G,2 F,2 E,2 D,2 | F,2 E,2- E,E, E,2 | E,2 A,,6- | A,,2 z2 z4 |] %13
V:6
 x8 | x8 | x8 | x8 | ^A,2 B,2 z B,, B,2 | x8 | x8 | x8 | x8 | x8 | x5[K:treble] x3 | x8 | x8 |] %13

